src/actions/24/project-development-close.svg

<svg xmlns="http://www.w3.org/2000/svg" viewBox="0 0 24 24">
  <defs id="defs3051">
    <style type="text/css" id="current-color-scheme">
      .ColorScheme-Text {
        color:#363636;
      }
      .ColorScheme-NegativeText {
        color:#da4453;
      }
      </style>
  </defs>
  <path 
     style="fill:currentColor;fill-opacity:1;stroke:none" 
     d="M 4 4 L 4 8 L 4 19 L 4 20 L 5 20 L 14 20 L 14 19 L 5 19 L 5 8 L 19 8 L 19 14 L 20 14 L 20 8 L 20 4 L 4 4 z "
     class="ColorScheme-Text"/>
  <path
     style="fill:currentColor;fill-opacity:1;stroke:none" 
     d="M 15.707031 15 L 15 15.707031 L 16.792969 17.5 L 15 19.292969 L 15.707031 20 L 17.5 18.207031 L 19.292969 20 L 20 19.292969 L 18.207031 17.5 L 20 15.707031 L 19.292969 15 L 17.5 16.792969 L 15.707031 15 z "
     class="ColorScheme-NegativeText"
     />
</svg>

<svg xmlns="http://www.w3.org/2000/svg" viewBox="0 0 24 24">
    <path d="M4 4v16h10v-1H5V8h14v6h1V4H4z" style="fill:currentColor;fill-opacity:1;stroke:none;color:#050505;opacity:.7"/>
    <path d="m15.707 15-.707.707 1.793 1.793L15 19.293l.707.707 1.793-1.793L19.293 20l.707-.707-1.793-1.793L20 15.707 19.293 15 17.5 16.793 15.707 15z" style="fill:currentColor;fill-opacity:1;stroke:none;color:#d98c8c"/>
</svg>
